X:67
T:B067-  Chloris, full of harmless thoughts
Q:1/4=120
L:1/4
M:C|
K:Am
E|A3/2B/2c(B/2A/2)|e(d/2c/2)f3/2e/2|d(c/2B/2)B3/2A/2|\
^G3 A|F3/2E/2F(E/2D/2)|B3/2c/2^G3/2A/2|Bcc3/2B/2|\
c3e|ef^c3/2c/2|d3/2e/2f3/2e/2|d(c/2B/2)c3/2d/2|\
e3":s:"E|FE^F3/2F/2|d(c/2B/2)^G3/2E/2|A3/2B/2 B3/2A/2|.A3|]
